X:1
T:Rosonet in Laudibus
T:Rosonet in Laudibus
T:Public  domain
T:Public  domain
Z:Public  domain
%%score { ( 1 2 ) ( 3 4 ) }
L:1/8
Q:1/4=140
M:6/8
K:Eb
V:1 treble nm="P1"
V:2 treble 
V:3 bass nm="P2"
V:4 bass 
V:1
"^Editor: John Henry Fowler""^( Revision: 11-21-2007 )" B2 G E2 G | B2 c B3 | B2 G EE"^( 1906 )"G | %3
 B2 c B3 | A2 A AAB | A2"^Ralph Vaughan Williams" G F2"^( 1872 - 1958 )" G | B2 G E2 G | %7
 F2 E F2 G |[M:5/8] E3 E2 ||[M:1/8] E |[M:6/8] B2 B BBB |[M:6/8] e2 d c2 B | e2 d c2 B | B2 =A B3 | %14
 E2 F GGA | B2 A G2 A | F2 F E3 | B3 G3 | B3 G3 | E2 F G2 B | A2 G F2 G |[M:11/8] E3 E8 |] %22
V:2
 B,3 C3 | E3 E3 | B,3 C3 | E3 E3 | F3 F2 D | E3 D3 | [B,D]3 C3 | C3- C2 D |[M:5/8] B,3 B,2 || %9
[M:1/8] x |[M:6/8] x x x x x A |[M:6/8] B3 G3 | G2 F G2 E | F2 F [DF]3 | x3 E3 | E3 E3 | E2 D C3 | %17
 D3 E3 | D3 E3 | x3 E3 | E3 D3 |[M:11/8] B,3- B,8 |] %22
V:3
 G,3 G,3 | E,3 G,3 | G,3 G,3 | E,3 G,3 | C3- C2 B, | A,2 B, B,3 | G,,3 C,3 | A,,2 C, A,,2 B,, | %8
[M:5/8] G,3 G,2 ||[M:1/8] E, |[M:6/8] B,2 B, B,2 A, |[M:6/8] B,3 E,3 | G,2 B, G,2 B, | C2 C F,3 | %14
 G,3 G,3 | x6 | B,2 A, G,3 | B,3 C3 | B,3 C3 | C3 B,3 | C3 A,3- |[M:11/8] A,3 A,8 |] %22
V:4
 E,3 C,3 | G,,2 G,, E,3 | E,3 C,3 | G,,2 z E,3 | F,3- E,2 G, | C,2 E, B,,3 | x6 | x6 | %8
[M:5/8] E,3 E,2 ||[M:1/8] x |[M:6/8] x x A, G,2 F, |[M:6/8] G,3 E,3 | C,2 D, E,2 G, | F,2 F, F,3 | %14
 E,3 C,3 | G,,3 B,,2 A,, | B,,2 B,, E,3 | G,,3 D,3 | G,,3 D,3 | A,3 G,3 | F,3 B,,3 | %21
[M:11/8] E,3- E,8 |] %22

